public/trident.svg

<?xml version="1.0" encoding="UTF-8"?>
<svg xmlns="http://www.w3.org/2000/svg" xmlns:xlink="http://www.w3.org/1999/xlink" width="2834.88" height="2834.88" viewBox="0 0 2834.88 2834.88">
<path fill-rule="evenodd" fill="rgb(0%, 0%, 0%)" fill-opacity="1" d="M 1284.699219 2049.679688 C 1271.039062 2037.773438 1254.988281 2028.84375 1236.910156 2021.371094 C 1131.21875 1977.726562 965.683594 1921.101562 898.414062 1822.238281 C 838.464844 1734.140625 810.988281 1651.421875 856.53125 1485.808594 C 902.074219 1320.199219 925.378906 1281.730469 935.183594 1173.878906 C 940.273438 1117.890625 926.703125 1027.609375 926.703125 1027.609375 L 840.746094 1132.441406 C 840.746094 1132.441406 862.441406 1010.199219 810.105469 815.101562 C 778.46875 697.160156 760.425781 670.359375 760.425781 670.359375 C 760.425781 670.359375 922.828125 870.71875 977.347656 1028.539062 C 1008.828125 1119.660156 1014.109375 1253.660156 998.050781 1339.058594 C 974.121094 1466.328125 943.746094 1564.449219 952.167969 1661.730469 C 957.925781 1728.261719 1053.46875 1834.289062 1155.980469 1871.476562 C 1245.699219 1904.023438 1343.480469 1861.347656 1353.78125 1800.429688 C 1355.898438 1787.890625 1357.789062 1775.179688 1359.460938 1762.449219 L 1363.230469 1195.289062 C 1342.300781 1140.671875 1274.019531 1111.96875 1219.089844 1123.148438 L 1417.320312 569.050781 L 1615.558594 1123.148438 C 1560.621094 1111.96875 1492.351562 1140.671875 1471.421875 1195.289062 L 1475.179688 1762.449219 C 1476.859375 1775.179688 1478.75 1787.890625 1480.871094 1800.429688 C 1491.171875 1861.347656 1588.949219 1904.023438 1678.671875 1871.476562 C 1781.179688 1834.289062 1876.71875 1728.261719 1882.480469 1661.730469 C 1890.898438 1564.449219 1860.53125 1466.328125 1836.589844 1339.058594 C 1820.539062 1253.660156 1825.820312 1119.660156 1857.300781 1028.539062 C 1911.820312 870.71875 2074.21875 670.359375 2074.21875 670.359375 C 2074.21875 670.359375 2056.179688 697.160156 2024.539062 815.101562 C 1972.210938 1010.199219 1993.898438 1132.441406 1993.898438 1132.441406 L 1907.941406 1027.609375 C 1907.941406 1027.609375 1894.371094 1117.890625 1899.460938 1173.878906 C 1909.269531 1281.730469 1932.570312 1320.199219 1978.109375 1485.808594 C 2023.660156 1651.421875 1996.179688 1734.140625 1936.230469 1822.238281 C 1868.960938 1921.101562 1703.421875 1977.726562 1597.738281 2021.371094 C 1579.648438 2028.84375 1563.601562 2037.773438 1549.941406 2049.679688 C 1558.378906 2055.683594 1563.890625 2065.542969 1563.890625 2076.691406 L 1563.890625 2109.8125 C 1563.890625 2128.105469 1549.058594 2142.933594 1530.769531 2142.933594 L 1502.890625 2142.933594 C 1500.011719 2159.53125 1498.320312 2178.332031 1497.898438 2199.722656 C 1497.53125 2218.203125 1497.75 2250.277344 1497.890625 2265.980469 L 1336.761719 2265.980469 C 1336.898438 2250.277344 1337.109375 2218.203125 1336.75 2199.722656 C 1336.328125 2178.332031 1334.640625 2159.53125 1331.75 2142.933594 L 1303.878906 2142.933594 C 1285.589844 2142.933594 1270.761719 2128.105469 1270.761719 2109.8125 L 1270.761719 2076.691406 C 1270.761719 2065.542969 1276.261719 2055.683594 1284.699219 2049.679688 "/>
</svg>

<?xml version="1.0" encoding="UTF-8" standalone="no"?>
<svg
   width="2834.88"
   height="2834.88"
   viewBox="0 0 2834.88 2834.88"
   version="1.1"
   id="svg4"
   sodipodi:docname="trident.svg"
   inkscape:version="1.2.2 (b0a8486541, 2022-12-01)"
   xmlns:inkscape="http://www.inkscape.org/namespaces/inkscape"
   xmlns:sodipodi="http://sodipodi.sourceforge.net/DTD/sodipodi-0.dtd"
   xmlns="http://www.w3.org/2000/svg"
   xmlns:svg="http://www.w3.org/2000/svg">
  <defs
     id="defs8" />
  <sodipodi:namedview
     id="namedview6"
     pagecolor="#ffffff"
     bordercolor="#000000"
     borderopacity="0.25"
     inkscape:showpageshadow="2"
     inkscape:pageopacity="0.0"
     inkscape:pagecheckerboard="0"
     inkscape:deskcolor="#d1d1d1"
     showgrid="false"
     inkscape:zoom="0.31853201"
     inkscape:cx="1415.8702"
     inkscape:cy="1420.5793"
     inkscape:window-width="1920"
     inkscape:window-height="1056"
     inkscape:window-x="0"
     inkscape:window-y="1080"
     inkscape:window-maximized="1"
     inkscape:current-layer="svg4" />
  <path
     fill-rule="evenodd"
     fill="#000000"
     fill-opacity="1"
     d="m 1284.6992,2049.6797 c -13.6601,-11.9063 -29.7109,-20.8359 -47.789,-28.3086 -105.6914,-43.6445 -271.22661,-100.2695 -338.49614,-199.1328 -59.94922,-88.0977 -87.42578,-170.8164 -41.88281,-336.4297 45.54297,-165.6094 68.84766,-204.0781 78.65234,-311.9297 5.08985,-55.9883 -8.48047,-146.2695 -8.48047,-146.2695 l -72.87804,-23.67 c 0,0 8.61633,6.2598 -43.71961,-188.83784 -31.63672,-117.9414 -49.67969,-144.74219 -49.67969,-144.74219 0,0 162.40234,200.35938 216.92188,358.17973 31.48044,91.1211 36.76174,225.1211 20.70312,310.5195 -23.92969,127.2695 -54.30469,225.3906 -45.88281,322.6719 5.75781,66.5312 101.30083,172.5586 203.81253,209.7461 89.7187,32.5468 187.5,-10.1289 197.8008,-71.0469 2.1171,-12.5391 4.0078,-25.25 5.6796,-37.9805 l 3.7696,-567.1601 c -20.9297,-54.6172 -27.6999,-152.5309 -82.6296,-141.3513 l 136.7194,-484.88702 133.9656,478.99802 c -54.9375,-11.1796 -58.9343,92.6231 -79.864,147.2403 l 3.7578,567.1601 c 1.6797,12.7305 3.5703,25.4414 5.6914,37.9805 10.3008,60.918 108.0781,103.5937 197.8008,71.0469 102.5078,-37.1875 198.0469,-143.2149 203.8086,-209.7461 8.4179,-97.2813 -21.9492,-195.4024 -45.8907,-322.6719 -16.0507,-85.3984 -10.7695,-219.3984 20.711,-310.5195 54.5195,-157.82035 216.918,-358.17973 216.918,-358.17973 0,0 -18.0391,26.80079 -49.6797,144.74219 -52.3282,195.09764 -37.4035,166.56731 -37.4035,166.56731 l -79.1942,45.94053 c 0,0 -13.5703,90.2812 -8.4805,146.2695 9.8086,107.8516 33.1094,146.3203 78.6485,311.9297 45.5508,165.6133 18.0703,248.332 -41.8789,336.4297 -67.2696,98.8633 -232.8086,155.4883 -338.4922,199.1328 -18.0899,7.4727 -34.1367,16.4023 -47.7969,28.3086 8.4375,6.0039 13.9492,15.8633 13.9492,27.0117 v 33.1211 c 0,18.293 -14.832,33.1211 -33.1211,33.1211 h -27.8789 c -2.8789,16.5977 -4.5703,35.3984 -4.9922,56.7891 -0.3671,18.4804 24.2278,193.1211 24.3662,208.8243 l -220.9468,4.4278 c 0.1367,-15.7032 35.7894,-194.7717 35.4297,-213.2521 -0.4219,-21.3907 -2.1094,-40.1914 -5,-56.7891 h -27.8711 c -18.2891,0 -33.1172,-14.8281 -33.1172,-33.1211 v -33.1211 c 0,-11.1484 5.5,-21.0078 13.9375,-27.0117"
     id="path2"
     sodipodi:nodetypes="ccccscccccccsccccccccccccccccccccccsssccccccsssc" />
</svg>
